img/svg/software-licenses/arrow-repeat.svg

<svg width="24" height="24" viewBox="0 0 24 24" fill="none" xmlns="http://www.w3.org/2000/svg">
<mask id="path-1-inside-1_10031_765" fill="white">
<path d="M17.3006 10.5008H23.1986C23.2699 10.5008 23.3397 10.5211 23.3998 10.5594C23.4599 10.5976 23.5079 10.6522 23.5381 10.7167C23.5683 10.7813 23.5795 10.8531 23.5704 10.9237C23.5613 10.9944 23.5322 11.061 23.4866 11.1158L20.5376 14.6558C20.5024 14.698 20.4584 14.7319 20.4086 14.7552C20.3589 14.7785 20.3046 14.7906 20.2496 14.7906C20.1947 14.7906 20.1404 14.7785 20.0906 14.7552C20.0409 14.7319 19.9968 14.698 19.9616 14.6558L17.0126 11.1158C16.967 11.061 16.938 10.9944 16.9289 10.9237C16.9197 10.8531 16.931 10.7813 16.9612 10.7167C16.9914 10.6522 17.0394 10.5976 17.0995 10.5594C17.1596 10.5211 17.2294 10.5008 17.3006 10.5008ZM0.800641 13.5008H6.69864C6.7699 13.5007 6.83967 13.4804 6.89979 13.4422C6.95991 13.4039 7.00789 13.3493 7.03811 13.2848C7.06833 13.2203 7.07953 13.1485 7.07042 13.0778C7.06131 13.0071 7.03224 12.9405 6.98664 12.8858L4.03764 9.34577C4.00245 9.30357 3.95841 9.26961 3.90864 9.24631C3.85887 9.22301 3.80459 9.21094 3.74964 9.21094C3.69469 9.21094 3.64041 9.22301 3.59064 9.24631C3.54087 9.26961 3.49683 9.30357 3.46164 9.34577L0.512641 12.8858C0.467037 12.9405 0.437977 13.0071 0.428862 13.0778C0.419747 13.1485 0.430956 13.2203 0.461175 13.2848C0.491394 13.3493 0.539372 13.4039 0.599493 13.4422C0.659613 13.4804 0.729386 13.5007 0.800641 13.5008Z"/>
</mask>
<path d="M17.3006 10.5008H23.1986C23.2699 10.5008 23.3397 10.5211 23.3998 10.5594C23.4599 10.5976 23.5079 10.6522 23.5381 10.7167C23.5683 10.7813 23.5795 10.8531 23.5704 10.9237C23.5613 10.9944 23.5322 11.061 23.4866 11.1158L20.5376 14.6558C20.5024 14.698 20.4584 14.7319 20.4086 14.7552C20.3589 14.7785 20.3046 14.7906 20.2496 14.7906C20.1947 14.7906 20.1404 14.7785 20.0906 14.7552C20.0409 14.7319 19.9968 14.698 19.9616 14.6558L17.0126 11.1158C16.967 11.061 16.938 10.9944 16.9289 10.9237C16.9197 10.8531 16.931 10.7813 16.9612 10.7167C16.9914 10.6522 17.0394 10.5976 17.0995 10.5594C17.1596 10.5211 17.2294 10.5008 17.3006 10.5008ZM0.800641 13.5008H6.69864C6.7699 13.5007 6.83967 13.4804 6.89979 13.4422C6.95991 13.4039 7.00789 13.3493 7.03811 13.2848C7.06833 13.2203 7.07953 13.1485 7.07042 13.0778C7.06131 13.0071 7.03224 12.9405 6.98664 12.8858L4.03764 9.34577C4.00245 9.30357 3.95841 9.26961 3.90864 9.24631C3.85887 9.22301 3.80459 9.21094 3.74964 9.21094C3.69469 9.21094 3.64041 9.22301 3.59064 9.24631C3.54087 9.26961 3.49683 9.30357 3.46164 9.34577L0.512641 12.8858C0.467037 12.9405 0.437977 13.0071 0.428862 13.0778C0.419747 13.1485 0.430956 13.2203 0.461175 13.2848C0.491394 13.3493 0.539372 13.4039 0.599493 13.4422C0.659613 13.4804 0.729386 13.5007 0.800641 13.5008Z" fill="#030303"/>
<path d="M23.1986 10.5008L23.199 9.50077H23.1986V10.5008ZM23.4866 11.1158L24.255 11.7558L24.255 11.7558L23.4866 11.1158ZM20.5376 14.6558L21.3056 15.2962L21.306 15.2958L20.5376 14.6558ZM19.9616 14.6558L19.1933 15.2958L19.1936 15.2962L19.9616 14.6558ZM17.0126 11.1158L16.2443 11.7558L16.2443 11.7558L17.0126 11.1158ZM6.69864 13.5008V14.5008H6.69902L6.69864 13.5008ZM6.98664 12.8858L7.75502 12.2458L7.75497 12.2457L6.98664 12.8858ZM4.03764 9.34577L4.80597 8.70571L4.80564 8.70532L4.03764 9.34577ZM3.46164 9.34577L2.69364 8.70532L2.69331 8.70571L3.46164 9.34577ZM0.512641 12.8858L-0.255687 12.2457L-0.255734 12.2458L0.512641 12.8858ZM17.3006 11.5008H23.1986V9.50077H17.3006V11.5008ZM23.1983 11.5008C23.0795 11.5007 22.9632 11.4668 22.863 11.4031L23.9366 9.71564C23.7161 9.5754 23.4603 9.50087 23.199 9.50077L23.1983 11.5008ZM22.863 11.4031C22.7628 11.3394 22.6829 11.2484 22.6325 11.1408L24.4437 10.2926C24.3329 10.056 24.157 9.85588 23.9366 9.71564L22.863 11.4031ZM22.6325 11.1408C22.5821 11.0333 22.5634 10.9136 22.5786 10.7958L24.5622 11.0517C24.5956 10.7925 24.5545 10.5292 24.4437 10.2926L22.6325 11.1408ZM22.5786 10.7958C22.5938 10.678 22.6423 10.567 22.7183 10.4758L24.255 11.7558C24.4222 11.555 24.5288 11.3108 24.5622 11.0517L22.5786 10.7958ZM22.7183 10.4757L19.7693 14.0157L21.306 15.2958L24.255 11.7558L22.7183 10.4757ZM19.7696 14.0153C19.8283 13.945 19.9017 13.8884 19.9846 13.8496L20.8326 15.6609C21.0151 15.5755 21.1766 15.451 21.3056 15.2962L19.7696 14.0153ZM19.9846 13.8496C20.0676 13.8107 20.1581 13.7906 20.2496 13.7906V15.7906C20.4511 15.7906 20.6502 15.7463 20.8326 15.6609L19.9846 13.8496ZM20.2496 13.7906C20.3412 13.7906 20.4317 13.8107 20.5146 13.8496L19.6666 15.6609C19.8491 15.7463 20.0482 15.7906 20.2496 15.7906V13.7906ZM20.5146 13.8496C20.5976 13.8884 20.671 13.945 20.7296 14.0153L19.1936 15.2962C19.3227 15.451 19.4842 15.5755 19.6666 15.6609L20.5146 13.8496ZM20.73 14.0157L17.781 10.4757L16.2443 11.7558L19.1933 15.2958L20.73 14.0157ZM17.781 10.4758C17.857 10.567 17.9055 10.678 17.9206 10.7958L15.9371 11.0517C15.9705 11.3108 16.0771 11.555 16.2443 11.7558L17.781 10.4758ZM17.9206 10.7958C17.9358 10.9136 17.9172 11.0333 17.8668 11.1408L16.0556 10.2926C15.9448 10.5292 15.9037 10.7925 15.9371 11.0517L17.9206 10.7958ZM17.8668 11.1408C17.8164 11.2484 17.7365 11.3394 17.6363 11.4031L16.5627 9.71564C16.3423 9.85588 16.1664 10.056 16.0556 10.2926L17.8668 11.1408ZM17.6363 11.4031C17.5361 11.4668 17.4198 11.5007 17.301 11.5008L17.3003 9.50077C17.039 9.50087 16.7832 9.5754 16.5627 9.71564L17.6363 11.4031ZM0.800641 14.5008H6.69864V12.5008H0.800641V14.5008ZM6.69902 14.5008C6.96029 14.5007 7.21612 14.4261 7.43656 14.2859L6.36302 12.5984C6.46322 12.5347 6.5795 12.5008 6.69827 12.5008L6.69902 14.5008ZM7.43656 14.2859C7.657 14.1457 7.83292 13.9455 7.94373 13.7089L6.13249 12.8607C6.18286 12.7532 6.26282 12.6622 6.36302 12.5984L7.43656 14.2859ZM7.94373 13.7089C8.05453 13.4723 8.09562 13.209 8.0622 12.9499L6.07863 13.2057C6.06344 13.0879 6.08212 12.9683 6.13249 12.8607L7.94373 13.7089ZM8.0622 12.9499C8.02878 12.6908 7.92223 12.4465 7.75502 12.2458L6.21827 13.5258C6.14226 13.4345 6.09383 13.3235 6.07863 13.2057L8.0622 12.9499ZM7.75497 12.2457L4.80597 8.70571L3.26931 9.98583L6.21831 13.5258L7.75497 12.2457ZM4.80564 8.70532C4.6766 8.55058 4.51512 8.42608 4.33264 8.34065L3.48464 10.152C3.40169 10.1131 3.3283 10.0566 3.26964 9.98622L4.80564 8.70532ZM4.33264 8.34065C4.15016 8.25522 3.95113 8.21094 3.74964 8.21094V10.2109C3.65805 10.2109 3.56759 10.1908 3.48464 10.152L4.33264 8.34065ZM3.74964 8.21094C3.54815 8.21094 3.34912 8.25522 3.16664 8.34065L4.01464 10.152C3.93169 10.1908 3.84123 10.2109 3.74964 10.2109V8.21094ZM3.16664 8.34065C2.98416 8.42608 2.82268 8.55058 2.69364 8.70532L4.22964 9.98622C4.17099 10.0566 4.09759 10.1131 4.01464 10.152L3.16664 8.34065ZM2.69331 8.70571L-0.255687 12.2457L1.28097 13.5258L4.22997 9.98583L2.69331 8.70571ZM-0.255734 12.2458C-0.422945 12.4465 -0.529502 12.6908 -0.562923 12.9499L1.42065 13.2057C1.40546 13.3235 1.35702 13.4345 1.28102 13.5258L-0.255734 12.2458ZM-0.562923 12.9499C-0.596343 13.209 -0.555247 13.4723 -0.444443 13.7089L1.36679 12.8607C1.41716 12.9683 1.43584 13.0879 1.42065 13.2057L-0.562923 12.9499ZM-0.444443 13.7089C-0.333638 13.9455 -0.157714 14.1457 0.062722 14.2859L1.13626 12.5984C1.23646 12.6622 1.31643 12.7532 1.36679 12.8607L-0.444443 13.7089ZM0.062722 14.2859C0.283159 14.4261 0.538992 14.5007 0.800266 14.5008L0.801016 12.5008C0.919779 12.5008 1.03607 12.5347 1.13626 12.5984L0.062722 14.2859Z" fill="#030303" mask="url(#path-1-inside-1_10031_765)"/>
<path fill-rule="evenodd" clip-rule="evenodd" d="M12.0005 4.50059C9.6725 4.50059 7.5905 5.56109 6.215 7.22759C6.15358 7.3072 6.07678 7.37365 5.98916 7.42298C5.90155 7.47231 5.80491 7.50353 5.70499 7.51476C5.60506 7.52599 5.50391 7.51702 5.40752 7.48838C5.31114 7.45973 5.2215 7.412 5.14394 7.34801C5.06637 7.28403 5.00246 7.2051 4.95601 7.11593C4.90956 7.02675 4.88152 6.92914 4.87355 6.82891C4.86558 6.72867 4.87785 6.62786 4.90962 6.53246C4.94139 6.43707 4.99202 6.34903 5.0585 6.27359C6.15678 4.94388 7.61388 3.95761 9.2565 3.43208C10.8991 2.90654 12.6581 2.86387 14.3243 3.30913C15.9904 3.75438 17.4936 4.66884 18.6551 5.94372C19.8166 7.21861 20.5874 8.80027 20.876 10.5006H19.3505C19.0042 8.80681 18.0836 7.28458 16.7443 6.19131C15.405 5.09804 13.7293 4.5008 12.0005 4.50059ZM4.6505 13.5006C4.93447 14.8875 5.60503 16.1658 6.58472 17.1878C7.5644 18.2098 8.81324 18.9337 10.1869 19.276C11.5606 19.6183 13.0032 19.565 14.3478 19.1222C15.6925 18.6793 16.8845 17.8651 17.786 16.7736C17.8474 16.694 17.9242 16.6275 18.0118 16.5782C18.0995 16.5289 18.1961 16.4977 18.296 16.4864C18.3959 16.4752 18.4971 16.4842 18.5935 16.5128C18.6899 16.5415 18.7795 16.5892 18.8571 16.6532C18.9346 16.7172 18.9985 16.7961 19.045 16.8853C19.0914 16.9744 19.1195 17.072 19.1274 17.1723C19.1354 17.2725 19.1232 17.3733 19.0914 17.4687C19.0596 17.5641 19.009 17.6522 18.9425 17.7276C17.8442 19.0573 16.3871 20.0436 14.7445 20.5691C13.1019 21.0946 11.3429 21.1373 9.67674 20.6921C8.01057 20.2468 6.50736 19.3323 5.34588 18.0575C4.18441 16.7826 3.41355 15.2009 3.125 13.5006H4.6505Z" fill="#030303"/>
</svg>

<svg width="24" height="24" fill="none" xmlns="http://www.w3.org/2000/svg"><mask id="a" fill="#fff"><path d="M17.3 10.5h5.9a.374.374 0 01.288.616l-2.95 3.54a.375.375 0 01-.575 0l-2.95-3.54a.375.375 0 01.289-.615zm-16.5 3h5.9a.376.376 0 00.288-.614l-2.95-3.54a.375.375 0 00-.575 0l-2.95 3.54a.375.375 0 00.289.615z"/></mask><path d="M17.3 10.5h5.9a.374.374 0 01.288.616l-2.95 3.54a.375.375 0 01-.575 0l-2.95-3.54a.375.375 0 01.289-.615zm-16.5 3h5.9a.376.376 0 00.288-.614l-2.95-3.54a.375.375 0 00-.575 0l-2.95 3.54a.375.375 0 00.289.615z" fill="#030303"/><path d="M23.199 10.5v-1 1zm.288.616l.768.64-.768-.64zm-2.95 3.54l.769.64-.768-.64zm-.575 0l-.769.64.769-.64zm-2.95-3.54l-.768.64.769-.64zM6.7 13.5v1-1zm.288-.615l.768-.64-.768.64zm-2.95-3.54l.769-.64-.768.64zm-.575 0l-.768-.64.768.64zm-2.95 3.54l-.768-.64.769.64zM17.302 11.5H23.2v-2h-5.9v2zm5.897 0a.626.626 0 01-.335-.098l1.074-1.687A1.375 1.375 0 0023.2 9.5v2zm-.335-.098a.625.625 0 01-.23-.262l1.81-.848a1.375 1.375 0 00-.506-.577l-1.074 1.687zm-.23-.262a.625.625 0 01-.054-.345l1.983.256a1.375 1.375 0 00-.118-.76l-1.811.849zm-.054-.345a.625.625 0 01.14-.32l1.536 1.28c.167-.201.274-.445.307-.704l-1.983-.256zm.14-.32l-2.95 3.54 1.537 1.28 2.949-3.54-1.537-1.28zm-2.95 3.54a.626.626 0 01.216-.166l.848 1.81c.182-.085.344-.209.473-.364l-1.536-1.28zm.216-.166a.624.624 0 01.265-.06v2c.201 0 .4-.044.583-.13l-.848-1.81zm.265-.06c.091 0 .182.02.265.06l-.848 1.81c.182.086.381.13.583.13v-2zm.265.06a.624.624 0 01.215.165l-1.536 1.281c.129.155.29.28.473.365l.848-1.811zm.215.166l-2.949-3.54-1.537 1.28 2.95 3.54 1.536-1.28zm-2.949-3.54a.624.624 0 01.14.32l-1.984.256c.034.259.14.503.307.704l1.537-1.28zm.14.32a.624.624 0 01-.054.345l-1.811-.848c-.111.236-.152.5-.119.759l1.984-.256zm-.054.345a.625.625 0 01-.23.262l-1.074-1.687c-.22.14-.397.34-.507.577l1.81.848zm-.23.262a.626.626 0 01-.336.098v-2c-.262 0-.518.074-.738.215l1.073 1.687zM.8 14.501h5.898v-2H.8v2zm5.898 0c.261 0 .517-.075.738-.215l-1.074-1.688a.625.625 0 01.335-.097l.001 2zm.738-.215c.22-.14.396-.34.507-.577l-1.812-.848a.626.626 0 01.231-.263l1.074 1.688zm.507-.577c.11-.237.152-.5.118-.76l-1.983.257a.625.625 0 01.053-.345l1.812.848zm.118-.76a1.375 1.375 0 00-.307-.703l-1.537 1.28a.625.625 0 01-.14-.32l1.984-.256zm-.307-.703l-2.949-3.54-1.537 1.28 2.95 3.54 1.536-1.28zm-2.95-3.54a1.375 1.375 0 00-.472-.365l-.848 1.811a.625.625 0 01-.215-.166l1.536-1.28zm-.472-.365a1.375 1.375 0 00-.583-.13v2a.625.625 0 01-.265-.059l.848-1.811zm-.583-.13c-.202 0-.4.044-.583.13l.848 1.811a.625.625 0 01-.265.059v-2zm-.583.13c-.183.085-.344.21-.473.364L4.23 9.986a.625.625 0 01-.215.166l-.848-1.811zm-.474.365l-2.949 3.54 1.537 1.28 2.949-3.54-1.537-1.28zm-2.949 3.54a1.37 1.37 0 00-.307.704l1.984.256a.625.625 0 01-.14.32l-1.537-1.28zm-.307.704c-.033.259.008.522.119.759l1.81-.848a.62.62 0 01.055.345l-1.984-.256zm.119.759c.11.236.286.437.507.577l1.073-1.688c.1.064.18.155.23.263l-1.81.848zm.507.577c.22.14.476.215.737.215l.001-2c.119 0 .235.034.335.097L.063 14.286z" fill="#030303" mask="url(#a)"/><path fill-rule="evenodd" clip-rule="evenodd" d="M12 4.5a7.483 7.483 0 00-5.785 2.728.75.75 0 11-1.156-.954A9.003 9.003 0 0120.876 10.5H19.35a7.503 7.503 0 00-7.35-6zm-7.35 9a7.503 7.503 0 0013.136 3.274.75.75 0 111.156.954A9.003 9.003 0 013.125 13.5h1.526z" fill="#030303"/></svg>
